X:4812
T:En revenant des noces
R:Ronde
A:Normandie
O:France
M:6/8
Q:1/4=200
K:B
BAG|F3d3|B2BBAG|F3d3|B3ccc|c3e3|d2cBAG|F3G3|
F=EGF3|Bcded2|B2cded|G3A3|B3||
